X: 1
T:I need thee
M:3/4
L:1/8
Q:80
C:Unknown.
S:Hymn
K:HP
{g}A2|
{g}f3e{Gdc}dc|
{Gdc}d4{G}d2|  !
{g}d3e{g}dB|
{G}A4{GAG}A2|
{g}e3f{g}eA|  !
{g}f4{Gdc}d2|
{g}c3d{g}cB|
{G}A4{g}f2|]  !
{gfg}f3d{gf}gf|
{gfg}f2{g}e4|
{g}e3d{g}fe|  !
{gef}e2{Gdc}d2{G}d2|
{g}d3e{g}dB|
{G}A2{Gdc}d2{g}e2|  !
{g}f3d{g}e2|
{Gdc}d4|]
